X:157
T: Amour und Liebe (2-50), S. 137
N: K1132
O: Luxemburg
S: KINTZELE, Guillaume: An der Ucht, Bd. 2, Luxemburg 1927]
R: Scherzlied, Liebe]
M: 2/4
L: 1/16
K: F
 | c2ccA2c2 | f6
F2 | F2F2E2F2 | G4z2
G2 | B2BBA2G2 | e6
d2 | c2c2B2G2 | F4z4

@@@ Tune index: 8211
